img/about/skill_bs.svg

<svg height="37" viewBox="0 0 40 37" width="40" xmlns="http://www.w3.org/2000/svg" xmlns:xlink="http://www.w3.org/1999/xlink"><linearGradient id="a" x1="50%" x2="50%" y1="0%" y2="100%"><stop offset="0" stop-color="#5c24ae"/><stop offset="1" stop-color="#30135a"/></linearGradient><linearGradient id="b" x1="50%" x2="50%" y1="-17.303%" y2="100%"><stop offset="0" stop-color="#7331d4"/><stop offset="1" stop-color="#461b84"/></linearGradient><linearGradient id="c" x1="50%" x2="50%" y1="0%" y2="100%"><stop offset="0" stop-color="#905bdd"/><stop offset="1" stop-color="#5521a0"/></linearGradient><g fill="none" fill-rule="evenodd"><path d="m0-1h40v40h-40z"/><g fill-rule="nonzero"><g transform="translate(0 10.06865)"><path d="m16.2913959 1.04379863-14.73684212 9.90366137c-2.02631579 1.3617391-2.02631579 3.5900686 0 4.9518077l14.73684212 9.9036614c2.0263158 1.3617391 5.3421052 1.3617391 7.368421 0l14.7368421-9.9036614c2.0263158-1.3617391 2.0263158-3.5900686 0-4.9518077l-14.7368421-9.90366137c-2.0263158-1.36173913-5.3421052-1.36173913-7.368421 0z" fill="#000"/><path d="m16.2913959 1.04379863-14.73684212 9.90366137c-2.02631579 1.3617391-2.02631579 3.5900686 0 4.9518077l14.73684212 9.9036614c2.0263158 1.3617391 5.3421052 1.3617391 7.368421 0l14.7368421-9.9036614c2.0263158-1.3617391 2.0263158-3.5900686 0-4.9518077l-14.7368421-9.90366137c-2.0263158-1.36173913-5.3421052-1.36173913-7.368421 0z" fill="url(#a)"/></g><g transform="translate(0 5.034325)"><path d="m16.2913959 1.04379863-14.73684212 9.90366137c-2.02631579 1.3617391-2.02631579 3.5900686 0 4.9518077l14.73684212 9.9036614c2.0263158 1.3617391 5.3421052 1.3617391 7.368421 0l14.7368421-9.9036614c2.0263158-1.3617391 2.0263158-3.5900686 0-4.9518077l-14.7368421-9.90366137c-2.0263158-1.36173913-5.3421052-1.36173913-7.368421 0z" fill="#000"/><path d="m16.2913959 1.04379863-14.73684212 9.90366137c-2.02631579 1.3617391-2.02631579 3.5900686 0 4.9518077l14.73684212 9.9036614c2.0263158 1.3617391 5.3421052 1.3617391 7.368421 0l14.7368421-9.9036614c2.0263158-1.3617391 2.0263158-3.5900686 0-4.9518077l-14.7368421-9.90366137c-2.0263158-1.36173913-5.3421052-1.36173913-7.368421 0z" fill="url(#b)"/></g><path d="m16.2913959 1.04379863-14.73684212 9.90366137c-2.02631579 1.3617391-2.02631579 3.5900686 0 4.9518077l14.73684212 9.9036614c2.0263158 1.3617391 5.3421052 1.3617391 7.368421 0l14.7368421-9.9036614c2.0263158-1.3617391 2.0263158-3.5900686 0-4.9518077l-14.7368421-9.90366137c-2.0263158-1.36173913-5.3421052-1.36173913-7.368421 0z" fill="#000"/><path d="m16.2913959 1.04379863-14.73684212 9.90366137c-2.02631579 1.3617391-2.02631579 3.5900686 0 4.9518077l14.73684212 9.9036614c2.0263158 1.3617391 5.3421052 1.3617391 7.368421 0l14.7368421-9.9036614c2.0263158-1.3617391 2.0263158-3.5900686 0-4.9518077l-14.7368421-9.90366137c-2.0263158-1.36173913-5.3421052-1.36173913-7.368421 0z" fill="url(#c)"/><path d="m22.1177574 19.4355606-11.4524942-7.6964302 4.484302-3.01359264c1.9601831-1.31734554 4.4297025-1.44086957 6.1439359-.28883295 1.1919451.80100686 1.4285584 2.13340959.5237529 3.00796339l.0635698.042746c1.7539588-.9122197 3.8492906-.8479176 5.3728146.1759725 2.0158353 1.3546911 1.7698399 3.1313044-.6664073 4.7685584zm-5.0874599-5.3389931 2.285675-1.5360183c1.6903891-1.1360183 1.9363845-2.2081922.6967506-3.0412357-1.1349199-.76270023-2.5395881-.66146453-3.9291075.27231121l-2.7295653 1.83437069zm8.0792677 1.6321739c1.7221968-1.1573913 1.9284211-2.2348741.6042563-3.1247597-1.324119-.8898856-2.9365217-.7145995-4.7616476.5119451l-2.6905721 1.8081464 4.0237987 2.7040733z" fill="#fff"/></g></g></svg>

<?xml version="1.0" encoding="UTF-8"?>
<svg width="40px" height="37px" viewBox="0 0 40 37" version="1.1" xmlns="http://www.w3.org/2000/svg" xmlns:xlink="http://www.w3.org/1999/xlink">
    <!-- Generator: Sketch 63.1 (92452) - https://sketch.com -->
    <title>skill_bs</title>
    <desc>Created with Sketch.</desc>
    <defs>
        <linearGradient x1="50%" y1="0%" x2="50%" y2="100%" id="linearGradient-1">
            <stop stop-color="#5C24AE" offset="0%"></stop>
            <stop stop-color="#30135A" offset="100%"></stop>
        </linearGradient>
        <linearGradient x1="50%" y1="0%" x2="50%" y2="100%" id="linearGradient-2">
            <stop stop-color="#5C24AE" offset="0%"></stop>
            <stop stop-color="#30135A" offset="100%"></stop>
        </linearGradient>
        <linearGradient x1="50%" y1="-17.303%" x2="50%" y2="100%" id="linearGradient-3">
            <stop stop-color="#7331D4" offset="0%"></stop>
            <stop stop-color="#461B84" offset="100%"></stop>
        </linearGradient>
        <linearGradient x1="50%" y1="-17.303%" x2="50%" y2="100%" id="linearGradient-4">
            <stop stop-color="#7331D4" offset="0%"></stop>
            <stop stop-color="#461B84" offset="100%"></stop>
        </linearGradient>
        <linearGradient x1="50%" y1="0%" x2="50%" y2="100%" id="linearGradient-5">
            <stop stop-color="#905BDD" offset="0%"></stop>
            <stop stop-color="#5521A0" offset="100%"></stop>
        </linearGradient>
        <linearGradient x1="50%" y1="0%" x2="50%" y2="100%" id="linearGradient-6">
            <stop stop-color="#905BDD" offset="0%"></stop>
            <stop stop-color="#5521A0" offset="100%"></stop>
        </linearGradient>
    </defs>
    <g id="Portfolio" stroke="none" stroke-width="1" fill="none" fill-rule="evenodd">
        <g id="202003" transform="translate(-465.000000, -3310.000000)">
            <g id="skill_bs" transform="translate(465.000000, 3309.000000)">
                <rect id="Rectangle-Copy-6" x="0" y="0" width="40" height="40"></rect>
                <g id="Group" transform="translate(0.000000, 1.000000)" fill-rule="nonzero">
                    <g transform="translate(0.000000, 10.068650)" id="b-link">
                        <g fill="#000000">
                            <path d="M16.2913959,1.04379863 L1.55455378,10.94746 C-0.471762014,12.3091991 -0.471762014,14.5375286 1.55455378,15.8992677 L16.2913959,25.8029291 C18.3177117,27.1646682 21.6335011,27.1646682 23.6598169,25.8029291 L38.396659,15.8992677 C40.4229748,14.5375286 40.4229748,12.3091991 38.396659,10.94746 L23.6598169,1.04379863 C21.6335011,-0.317940503 18.3177117,-0.317940503 16.2913959,1.04379863 Z" id="b"></path>
                        </g>
                        <g fill="url(#linearGradient-2)">
                            <path d="M16.2913959,1.04379863 L1.55455378,10.94746 C-0.471762014,12.3091991 -0.471762014,14.5375286 1.55455378,15.8992677 L16.2913959,25.8029291 C18.3177117,27.1646682 21.6335011,27.1646682 23.6598169,25.8029291 L38.396659,15.8992677 C40.4229748,14.5375286 40.4229748,12.3091991 38.396659,10.94746 L23.6598169,1.04379863 C21.6335011,-0.317940503 18.3177117,-0.317940503 16.2913959,1.04379863 Z" id="b"></path>
                        </g>
                    </g>
                    <g transform="translate(0.000000, 5.034325)" id="e-link">
                        <g fill="#000000">
                            <path d="M16.2913959,1.04379863 L1.55455378,10.94746 C-0.471762014,12.3091991 -0.471762014,14.5375286 1.55455378,15.8992677 L16.2913959,25.8029291 C18.3177117,27.1646682 21.6335011,27.1646682 23.6598169,25.8029291 L38.396659,15.8992677 C40.4229748,14.5375286 40.4229748,12.3091991 38.396659,10.94746 L23.6598169,1.04379863 C21.6335011,-0.317940503 18.3177117,-0.317940503 16.2913959,1.04379863 Z" id="e"></path>
                        </g>
                        <g fill="url(#linearGradient-4)">
                            <path d="M16.2913959,1.04379863 L1.55455378,10.94746 C-0.471762014,12.3091991 -0.471762014,14.5375286 1.55455378,15.8992677 L16.2913959,25.8029291 C18.3177117,27.1646682 21.6335011,27.1646682 23.6598169,25.8029291 L38.396659,15.8992677 C40.4229748,14.5375286 40.4229748,12.3091991 38.396659,10.94746 L23.6598169,1.04379863 C21.6335011,-0.317940503 18.3177117,-0.317940503 16.2913959,1.04379863 Z" id="e"></path>
                        </g>
                    </g>
                    <g id="h-link">
                        <g fill="#000000">
                            <path d="M16.2913959,1.04379863 L1.55455378,10.94746 C-0.471762014,12.3091991 -0.471762014,14.5375286 1.55455378,15.8992677 L16.2913959,25.8029291 C18.3177117,27.1646682 21.6335011,27.1646682 23.6598169,25.8029291 L38.396659,15.8992677 C40.4229748,14.5375286 40.4229748,12.3091991 38.396659,10.94746 L23.6598169,1.04379863 C21.6335011,-0.317940503 18.3177117,-0.317940503 16.2913959,1.04379863 Z" id="h"></path>
                        </g>
                        <g fill="url(#linearGradient-6)">
                            <path d="M16.2913959,1.04379863 L1.55455378,10.94746 C-0.471762014,12.3091991 -0.471762014,14.5375286 1.55455378,15.8992677 L16.2913959,25.8029291 C18.3177117,27.1646682 21.6335011,27.1646682 23.6598169,25.8029291 L38.396659,15.8992677 C40.4229748,14.5375286 40.4229748,12.3091991 38.396659,10.94746 L23.6598169,1.04379863 C21.6335011,-0.317940503 18.3177117,-0.317940503 16.2913959,1.04379863 Z" id="h"></path>
                        </g>
                    </g>
                    <path d="M22.1177574,19.4355606 L10.6652632,11.7391304 L15.1495652,8.72553776 C17.1097483,7.40819222 19.5792677,7.28466819 21.2935011,8.43670481 C22.4854462,9.23771167 22.7220595,10.5701144 21.817254,11.4446682 L21.8808238,11.4874142 C23.6347826,10.5751945 25.7301144,10.6394966 27.2536384,11.6633867 C29.2694737,13.0180778 29.0234783,14.7946911 26.5872311,16.4319451 L22.1177574,19.4355606 L22.1177574,19.4355606 Z M17.0302975,14.0965675 L19.3159725,12.5605492 C21.0063616,11.4245309 21.252357,10.352357 20.0127231,9.5193135 C18.8778032,8.75661327 17.473135,8.85784897 16.0836156,9.79162471 L13.3540503,11.6259954 L17.0302975,14.0965675 L17.0302975,14.0965675 Z M25.1095652,15.7287414 C26.831762,14.5713501 27.0379863,13.4938673 25.7138215,12.6039817 C24.3897025,11.7140961 22.7772998,11.8893822 20.9521739,13.1159268 L18.2616018,14.9240732 L22.2854005,17.6281465 L25.1095652,15.7287414 L25.1095652,15.7287414 Z" id="Shape" fill="#FFFFFF"></path>
                </g>
            </g>
        </g>
    </g>
</svg>
